X: 77
M:C|
L:1/8
K:D
u(f>.e)|"4"v(e>.d)(c>.d) "SEGUE"D>FA>d|c>B ^A>B E>FE>D|\
"4"e>dc>d D>FA>d|c>B^A>B E>FE>D|C>EG>B ^G>Af>e|d2 f2 d2:|
|:u(EF)|"4"v(AG)(A,2-A,>.C)(E>.G)|u(Fd) D4 (d>.c)|\
(B>.c)"SEGUE"d>^d "4"e>=dB>^G|A>A^G>A ^A>B^B>c|\
v((3dcd) (D2-D>.F)(A>.d)|u((3B^AB) (E2-E>F)(G>B)|\


